src/frontend/src/assets/icon_cpu.svg

<svg width="24" height="24" viewBox="0 0 24 24" fill="none" xmlns="http://www.w3.org/2000/svg">
<g id="CPU">
<g id="Group 9071">
<path id="Vector" d="M17.833 5.33325H6.16634C5.7061 5.33325 5.33301 5.70635 5.33301 6.16659V17.8333C5.33301 18.2935 5.7061 18.6666 6.16634 18.6666H17.833C18.2933 18.6666 18.6663 18.2935 18.6663 17.8333V6.16659C18.6663 5.70635 18.2933 5.33325 17.833 5.33325Z" stroke="#A6B6D1" stroke-linejoin="round"/>
<path id="Vector_2" d="M14.5 9.5H9.5V14.5H14.5V9.5Z" stroke="#A6B6D1" stroke-linejoin="round"/>
<path id="Vector_3" d="M8.21191 2.83325V5.33325" stroke="#A6B6D1" stroke-linecap="round" stroke-linejoin="round"/>
<path id="Vector_4" d="M8.21191 18.6667V21.1667" stroke="#A6B6D1" stroke-linecap="round" stroke-linejoin="round"/>
<path id="Vector_5" d="M12 2.83325V5.33325" stroke="#A6B6D1" stroke-linecap="round" stroke-linejoin="round"/>
<path id="Vector_6" d="M12 18.6667V21.1667" stroke="#A6B6D1" stroke-linecap="round" stroke-linejoin="round"/>
<path id="Vector_7" d="M15.7881 2.83325V5.33325" stroke="#A6B6D1" stroke-linecap="round" stroke-linejoin="round"/>
<path id="Vector_8" d="M15.7881 18.6667V21.1667" stroke="#A6B6D1" stroke-linecap="round" stroke-linejoin="round"/>
<path id="Vector_9" d="M2.83301 8.21216H5.33301" stroke="#A6B6D1" stroke-linecap="round" stroke-linejoin="round"/>
<path id="Vector_10" d="M18.667 8.21216H21.167" stroke="#A6B6D1" stroke-linecap="round" stroke-linejoin="round"/>
<path id="Vector_11" d="M2.83301 12H5.33301" stroke="#A6B6D1" stroke-linecap="round" stroke-linejoin="round"/>
<path id="Vector_12" d="M18.667 12H21.167" stroke="#A6B6D1" stroke-linecap="round" stroke-linejoin="round"/>
<path id="Vector_13" d="M2.83301 15.7878H5.33301" stroke="#A6B6D1" stroke-linecap="round" stroke-linejoin="round"/>
<path id="Vector_14" d="M18.667 15.7878H21.167" stroke="#A6B6D1" stroke-linecap="round" stroke-linejoin="round"/>
</g>
</g>
</svg>

<svg width="24" height="24" viewBox="0 0 24 24" fill="none" xmlns="http://www.w3.org/2000/svg"><g stroke="#A6B6D1" stroke-linejoin="round"><path d="M17.833 5.333H6.166a.833.833 0 0 0-.833.834v11.666c0 .46.373.834.833.834h11.667c.46 0 .833-.373.833-.834V6.167a.833.833 0 0 0-.833-.834z"/><path d="M14.5 9.5h-5v5h5v-5z"/><path d="M8.212 2.833v2.5m0 13.334v2.5M12 2.833v2.5m0 13.334v2.5m3.788-18.334v2.5m0 13.334v2.5M2.833 8.212h2.5m13.334 0h2.5M2.833 12h2.5m13.334 0h2.5M2.833 15.788h2.5m13.334 0h2.5" stroke-linecap="round"/></g></svg>
